!!!OTL: Tongyang xifu ku nan dang
!!!ARE: Asia, China,ˇbei Hebei, Qinghe
!! IV, 61
!!!SCT: C1637
!!!YEM: Copyright 1995, estate of Helmut Schaffrath.
**kern
*ICvox
*Ivox
*M2/4
*k[b-e-a-]
*E-:
{8ee-
16ee-
16cc
4b-
=1
8ee-
16ee-
16cc
4b-
=2
8b-
8ee-
8ee-
8g
=3
8f
8e-
4f}
=4
{8b-
8g
4b-
=5
8b-
8c
4e-
=6
8f
16g
16f
8e-
8c
=7
2B-}
=8
{8e-
8c
4e-
=9
8f
8g
4f
=10
8b-
8g
8f
8e-
=11
2c}
=12
{8ee-
8b-
4ee-
=13
8b-
8b-
8g
8f
=14
8e-
8c
8b-
8g
=15
4f
8f
16f
16c
=16
2B-}
=17
{8g
8f
8g
8e-
=18
2f
=19
8ee-
8b-
4ee-
=20
8b-
8b-
8g
8f
=21
8e-
8c
8b-
8g
=22
4f
8f
16f
16c
=23
2B-}
==
!!!AGN: Xiaodiao, MengjiangnÅ diao. FunÅ ku
!!!AMT: simple duple
!!!AIN: vox
!!!EED: Helmut Schaffrath
!!!EEV: 1.0
*-
